src/icon/entity/cashback-bonus/icon_cashback-bonus_xl_color.svg

<?xml version="1.0" encoding="UTF-8"?>
<svg width="36px" height="36px" viewBox="0 0 36 36" version="1.1" xmlns="http://www.w3.org/2000/svg" xmlns:xlink="http://www.w3.org/1999/xlink">
    <!-- Generator: Sketch 49 (51002) - http://www.bohemiancoding.com/sketch -->
    <title>icon_cashback-bonus_xl_color</title>
    <desc>Created with Sketch.</desc>
    <defs></defs>
    <g id="icon_cashback-bonus_xl_color" stroke="none" stroke-width="1" fill="none" fill-rule="evenodd">
        <g id="Group" transform="translate(3.000000, 3.000000)" fill-rule="nonzero">
            <rect id="Rectangle-path-Copy" fill="#FFD700" x="0" y="0" width="30" height="30" rx="15"></rect>
            <path d="M16.6416667,8.57311496 C16.7583334,8.90492396 19.4566666,16.711794 19.5366667,16.945762 C19.56,17.0104221 19.5449999,17.1184727 19.4491667,17.1567584 C19.3541667,17.1950442 17.9516667,17.7710305 17.8741667,17.8016589 C17.7966667,17.8331383 17.7091666,17.7871956 17.6808334,17.7055195 C17.6516667,17.6246941 17.0349999,15.7138147 16.9691666,15.5232373 L13.1,15.5062214 L12.3266667,17.7055195 C12.2991667,17.7837924 12.2158333,17.8365415 12.1333333,17.8016589 L10.5591667,17.1567584 C10.4791463,17.1218965 10.4399369,17.0291146 10.47,16.945762 C10.57,16.6530895 13.2266667,8.97213655 13.3633333,8.57311496 C13.6258333,7.79889397 13.965,7 15.0033334,7 C16.0424999,7 16.3691668,7.78613208 16.6416667,8.57311496 Z M10.155,20.7990003 C10.0691667,20.7990003 10,20.8747207 10,20.9674571 L10,22.8323939 C10,22.925981 10.0691667,23 10.155,23 L19.8466667,23 C19.9316666,23 20,22.925981 20,22.8323939 L20,20.9674571 C20,20.87387 19.9316666,20.799851 19.8466667,20.799851 L10.155,20.799851 L10.155,20.7990003 Z M13.6333333,13.7620972 L16.3591667,13.7620972 L15.1416667,9.56769114 L14.8241667,9.56769114 L13.6333333,13.7620972 Z" id="Shape-Copy" fill="#0B1F35"></path>
        </g>
    </g>
</svg>

<svg width="36" height="36" viewBox="0 0 36 36" xmlns="http://www.w3.org/2000/svg"><g fill="none" fill-rule="evenodd"><path d="M0 0h36v36H0z"/><g transform="translate(3 3)" fill-rule="nonzero"><rect fill="gold" width="30" height="30" rx="15"/><path d="M16.642 8.573c.116.332 2.815 8.139 2.895 8.373.023.064.008.172-.088.21l-1.575.646c-.077.031-.165-.015-.193-.096-.03-.081-.646-1.992-.712-2.183l-3.869-.017-.773 2.2c-.028.078-.111.13-.194.096l-1.574-.645a.168.168 0 0 1-.089-.211c.1-.293 2.757-7.974 2.893-8.373C13.626 7.8 13.965 7 15.003 7c1.04 0 1.366.786 1.639 1.573zM10.155 20.8c-.086 0-.155.076-.155.168v1.865c0 .094.07.168.155.168h9.692c.085 0 .153-.074.153-.168v-1.865c0-.093-.068-.167-.153-.167h-9.692v-.001zm3.478-7.037h2.726l-1.217-4.194h-.318l-1.19 4.194z" fill="#0B1F35"/></g></g></svg>
